X:5139
T:The Friend In Need
M:6/8
L:1/8
C:Aidan Crossey
R:Jig
K:D
|:DEF A2F|BAG A2F|GAB d2B|BAB BAG|
DEF A2F|BAG A2F|GAB FGA|cBc d3:||
|:d2d efd|c2A ABA|B2B BAG|AFD AFD|
d2d efd|c2A ABA|Bcd ecA|d3 d3:||
